X: 100535
T: Jimmy Doyle's Favorite
S: Treoir
Z: B.Black
M: 2/4
L: 1/8
R: polka
K: G
Bd de | dB B/A/B/c/ | d>B A>B | dB G>A |
Bd de | dB B/A/B/c/ | dG BA | AG G2 :|
dg (3gfg | fe (3ede | ed (3dcd | ed B2 |
dg (3gfg | fe e/f/g/e/ | dB BA | AG G2 :|
